build/img/icon-watch.svg

<svg width="29" height="35" viewBox="0 0 29 35" fill="none" xmlns="http://www.w3.org/2000/svg">
<path d="M3.18833 11.6622L1.70191 10.1904C0.894381 9.39114 0.894381 8.09017 1.70191 7.29042C2.50945 6.49094 3.82351 6.49094 4.63104 7.29042L6.21806 8.86162C7.87358 7.72007 9.7608 6.92993 11.7381 6.55075V4.51172H10.3571C9.97576 4.51172 9.66667 4.2057 9.66667 3.82812V2.05078C9.66667 0.919914 10.5958 0 11.7381 0H17.2619C18.4042 0 19.3333 0.919914 19.3333 2.05078V3.82812C19.3333 4.2057 19.0242 4.51172 18.6429 4.51172H17.2619V6.55075C19.2389 6.92966 21.1264 7.72007 22.7819 8.86162L24.369 7.29042C25.1762 6.49094 26.4903 6.49094 27.2981 7.29042C28.1056 8.0899 28.1056 9.39087 27.2981 10.1904L25.8117 11.6622C27.872 14.203 29 17.3678 29 20.6445C29 28.5601 22.4952 35 14.5 35C6.50477 35 -1.90735e-06 28.5601 -1.90735e-06 20.6445C-1.90735e-06 17.3678 1.12796 14.203 3.18833 11.6622ZM3.65467 8.25706C3.38522 7.99057 2.94747 7.99084 2.67829 8.25706C2.40938 8.52356 2.40938 8.95721 2.67829 9.22371L4.10509 10.636C4.4266 10.3092 4.76374 9.99756 5.11438 9.70249L3.65467 8.25706ZM17.9524 2.05078C17.9524 1.67374 17.6427 1.36719 17.2619 1.36719H11.7381C11.3573 1.36719 11.0476 1.67374 11.0476 2.05078V3.14453H17.9524V2.05078ZM13.119 4.51172V6.35368C14.0342 6.26877 14.9655 6.26877 15.881 6.35368V4.51172H13.119ZM26.3217 8.25706C26.0525 7.99084 25.6145 7.99057 25.3453 8.25706L23.8856 9.70249C24.2363 9.99756 24.5734 10.3092 24.8949 10.636L26.3217 9.22371C26.5906 8.95721 26.5906 8.52356 26.3217 8.25706ZM14.5 33.6328C21.7338 33.6328 27.619 27.8062 27.619 20.6445C27.619 17.4853 26.4606 14.4415 24.3574 12.0732C23.778 11.4208 23.1315 10.8248 22.4359 10.3009C20.6927 8.98766 18.6294 8.12328 16.4689 7.80098C15.8224 7.70512 15.16 7.65625 14.5 7.65625C13.84 7.65625 13.1776 7.70512 12.5313 7.80098C10.3706 8.12328 8.30729 8.98766 6.56384 10.3009C5.86851 10.8248 5.22199 11.4208 4.64264 12.0732C2.53939 14.4415 1.38095 17.4853 1.38095 20.6445C1.38095 27.8062 7.26618 33.6328 14.5 33.6328Z"/>
<path d="M14.4999 22.6953C13.3576 22.6953 12.4284 21.7754 12.4284 20.6445C12.4284 19.7535 13.0056 18.9935 13.8094 18.7112V13.8086C13.8094 13.431 14.1185 13.125 14.4999 13.125C14.8812 13.125 15.1903 13.431 15.1903 13.8086V18.7112C15.9941 18.9935 16.5713 19.7535 16.5713 20.6445C16.5713 21.7754 15.6421 22.6953 14.4999 22.6953ZM14.4999 19.9609C14.119 19.9609 13.8094 20.2675 13.8094 20.6445C13.8094 21.0216 14.119 21.3281 14.4999 21.3281C14.8807 21.3281 15.1903 21.0216 15.1903 20.6445C15.1903 20.2675 14.8807 19.9609 14.4999 19.9609Z"/>
<path d="M7.14433 13.4326C7.15512 13.42 7.16591 13.4075 7.17805 13.3957C7.19099 13.3826 7.20475 13.3709 7.2185 13.3591C8.43547 12.1671 9.93887 11.2851 11.5704 10.8082C11.9364 10.7014 12.3202 10.9081 12.4281 11.2702C12.536 11.6323 12.3272 12.0125 11.9615 12.1193C10.7526 12.4729 9.62492 13.0838 8.66365 13.8996L9.12945 14.3608C9.3989 14.6278 9.3989 15.0607 9.12945 15.3277C8.99459 15.4612 8.81793 15.528 8.64099 15.528C8.46433 15.528 8.28766 15.4612 8.15281 15.3277L7.68592 14.8655C6.43659 16.3037 5.6946 18.0741 5.55003 19.9609H6.21408C6.59546 19.9609 6.90455 20.2672 6.90455 20.6445C6.90455 21.0221 6.59546 21.3281 6.21408 21.3281H5.55003C5.6946 23.2152 6.43659 24.9853 7.68592 26.4235L8.15281 25.9613C8.42252 25.6945 8.85973 25.6945 9.12945 25.9613C9.39917 26.2283 9.39917 26.6612 9.12945 26.9282L8.66257 27.3904C10.1153 28.6273 11.9035 29.3619 13.8093 29.5053V28.8476C13.8093 28.47 14.1184 28.164 14.4998 28.164C14.8812 28.164 15.1903 28.47 15.1903 28.8476V29.505C17.0961 29.3619 18.8843 28.6273 20.337 27.3904L19.8701 26.9282C19.6004 26.6612 19.6004 26.2283 19.8701 25.9613C20.1398 25.6945 20.5771 25.6945 20.8468 25.9613L21.3137 26.4235C22.563 24.9853 23.305 23.2149 23.4495 21.3281H22.7855C22.4041 21.3281 22.095 21.0221 22.095 20.6445C22.095 20.2669 22.4041 19.9609 22.7855 19.9609H23.4495C23.305 18.0741 22.563 16.3037 21.3137 14.8655L20.8468 15.3277C20.7119 15.4612 20.5353 15.528 20.3586 15.528C20.1817 15.528 20.005 15.4612 19.8701 15.3277C19.6007 15.0607 19.6007 14.6278 19.8701 14.3608L20.3359 13.8996C19.3747 13.0836 18.247 12.4729 17.0381 12.1193C16.6724 12.0125 16.4636 11.6323 16.5715 11.2702C16.6794 10.9081 17.0629 10.7017 17.4292 10.8082C19.0604 11.2849 20.5633 12.1666 21.78 13.3581C21.7943 13.3701 21.8083 13.3824 21.8215 13.3955C21.8334 13.4072 21.8439 13.4195 21.8547 13.4318C23.791 15.3667 24.8569 17.9259 24.8569 20.6445C24.8569 23.3628 23.791 25.9218 21.8553 27.8564C21.8445 27.869 21.8337 27.8815 21.8215 27.8933C21.8097 27.9053 21.7973 27.9157 21.7849 27.9264C19.8305 29.8431 17.2458 30.8984 14.4998 30.8984C11.7541 30.8984 9.16937 29.8434 7.21527 27.9269C7.20259 27.916 7.18991 27.9053 7.17805 27.8933C7.16618 27.8818 7.15566 27.8692 7.14487 27.8572C5.20857 25.9223 4.14265 23.3631 4.14265 20.6445C4.14265 17.9261 5.20857 15.3672 7.14433 13.4326Z"/>
<path d="M14.5 11.7578C14.1188 11.7578 13.8095 11.4515 13.8095 11.0742C13.8095 10.6969 14.1188 10.3906 14.5 10.3906C14.8811 10.3906 15.1904 10.6969 15.1904 11.0742C15.1904 11.4515 14.8811 11.7578 14.5 11.7578Z"/>
</svg>

<svg width="29" height="35" fill="none" xmlns="http://www.w3.org/2000/svg"><path d="M3.188 11.662L1.702 10.19a2.038 2.038 0 010-2.9c.807-.8 2.122-.8 2.929 0l1.587 1.572a14.58 14.58 0 015.52-2.311V4.51h-1.38a.687.687 0 01-.691-.683V2.051C9.667.92 10.596 0 11.738 0h5.524c1.142 0 2.071.92 2.071 2.05v1.778a.687.687 0 01-.69.684h-1.381V6.55a14.578 14.578 0 015.52 2.31l1.587-1.57c.807-.8 2.121-.8 2.93 0a2.04 2.04 0 010 2.9l-1.487 1.471A14.252 14.252 0 0129 20.644C29 28.56 22.495 35 14.5 35S0 28.56 0 20.645c0-3.277 1.128-6.442 3.188-8.983zm.467-3.405a.696.696 0 00-.977 0 .68.68 0 000 .967l1.427 1.412c.322-.327.659-.638 1.01-.934l-1.46-1.445zm14.297-6.206a.688.688 0 00-.69-.684h-5.524c-.38 0-.69.307-.69.684v1.094h6.904V2.05zM13.12 4.51v1.843a15.006 15.006 0 012.762 0V4.512H13.12zm13.203 3.746a.696.696 0 00-.977 0l-1.46 1.445c.351.296.688.607 1.01.934l1.427-1.412a.68.68 0 000-.967zM14.5 33.633c7.234 0 13.119-5.827 13.119-12.989 0-3.159-1.158-6.202-3.262-8.57A13.177 13.177 0 0014.5 7.656a13.18 13.18 0 00-7.936 2.645 13.19 13.19 0 00-1.921 1.771 12.898 12.898 0 00-3.262 8.572c0 7.161 5.885 12.988 13.119 12.988z"/><path d="M14.5 22.695a2.063 2.063 0 01-2.072-2.05c0-.892.578-1.651 1.381-1.934V13.81c0-.378.31-.684.69-.684.382 0 .691.306.691.684v4.902a2.056 2.056 0 011.381 1.934c0 1.13-.929 2.05-2.071 2.05zm0-2.734a.687.687 0 00-.69.684c0 .377.309.683.69.683.38 0 .69-.306.69-.683a.688.688 0 00-.69-.684z"/><path d="M7.144 13.433a.542.542 0 01.034-.037l.04-.037a10.417 10.417 0 014.352-2.55c.366-.108.75.1.858.461a.682.682 0 01-.467.85 9.027 9.027 0 00-3.297 1.78l.465.46c.27.268.27.7 0 .968a.692.692 0 01-.976 0l-.467-.462A8.758 8.758 0 005.55 19.96h.664c.381 0 .69.306.69.684a.687.687 0 01-.69.683H5.55a8.757 8.757 0 002.136 5.096l.467-.463a.696.696 0 01.976 0c.27.267.27.7 0 .967l-.466.462a8.941 8.941 0 005.146 2.115v-.657c0-.378.31-.684.69-.684.382 0 .691.306.691.684v.657a8.939 8.939 0 005.147-2.115l-.467-.462a.679.679 0 010-.967.696.696 0 01.977 0l.467.463a8.757 8.757 0 002.136-5.096h-.665a.687.687 0 01-.69-.683c0-.378.31-.684.69-.684h.665a8.757 8.757 0 00-2.136-5.095l-.467.462a.692.692 0 01-.977 0 .68.68 0 010-.967l.466-.461a9.023 9.023 0 00-3.298-1.78.682.682 0 01-.466-.85.692.692 0 01.857-.462 10.414 10.414 0 014.393 2.588l.033.036a10.132 10.132 0 013.002 7.213c0 2.718-1.066 5.277-3.002 7.211a.531.531 0 01-.034.037 10.34 10.34 0 01-7.322 3.005 10.34 10.34 0 01-7.284-2.971l-.037-.034c-.012-.011-.022-.024-.033-.036a10.132 10.132 0 01-3.002-7.212c0-2.719 1.066-5.278 3.001-7.212z"/><path d="M14.5 11.758a.687.687 0 01-.69-.684c0-.377.309-.683.69-.683.381 0 .69.306.69.683a.688.688 0 01-.69.684z"/></svg>
